svg/fluentui-system-icons/ic_fluent_vehicle_car_parking_20_regular.svg

<svg width="20" height="20" viewBox="0 0 20 20" fill="none" xmlns="http://www.w3.org/2000/svg">
<path d="M14 1.5C14 1.22386 14.2239 1 14.5 1H18.5C18.7761 1 19 1.22386 19 1.5V6.5C19 6.77614 18.7761 7 18.5 7H17V18.5C17 18.7761 16.7761 19 16.5 19C16.2239 19 16 18.7761 16 18.5V7H14.5C14.2239 7 14 6.77614 14 6.5V1.5ZM13 3H6.13961C4.94791 3 3.92187 3.84115 3.68816 5.00971L3.49 6H2.75C2.33579 6 2 6.33579 2 6.75C2 7.16421 2.33579 7.5 2.75 7.5H3.19L3.0789 8.05991C2.45546 8.24191 2 8.81777 2 9.5V14.5C2 15.3284 2.67157 16 3.5 16H4V17C4 17.5523 4.44772 18 5 18C5.55228 18 6 17.5523 6 17V16H14V17C14 17.5523 14.4477 18 15 18V15H3.5C3.22386 15 3 14.7761 3 14.5V9.5C3 9.22386 3.22386 9 3.5 9H15V8H4.1099L4.66874 5.20583C4.80896 4.50469 5.42459 4 6.13961 4H13V3ZM15 12C15 11.4477 14.5523 11 14 11C13.4477 11 13 11.4477 13 12C13 12.5523 13.4477 13 14 13C14.5523 13 15 12.5523 15 12ZM7 12C7 11.4477 6.55228 11 6 11C5.44772 11 5 11.4477 5 12C5 12.5523 5.44772 13 6 13C6.55228 13 7 12.5523 7 12Z" fill="#212121"/>
</svg>

<svg xmlns="http://www.w3.org/2000/svg" width="20" height="20"><path d="M14 1.5a.5.5 0 0 1 .5-.5h4a.5.5 0 0 1 .5.5v5a.5.5 0 0 1-.5.5H17v11.5a.5.5 0 0 1-1 0V7h-1.5a.5.5 0 0 1-.5-.5v-5ZM13 3H6.14a2.5 2.5 0 0 0-2.452 2.01L3.49 6h-.74a.75.75 0 0 0 0 1.5h.44l-.111.56A1.5 1.5 0 0 0 2 9.5v5A1.5 1.5 0 0 0 3.5 16H4v1a1 1 0 1 0 2 0v-1h8v1a1 1 0 0 0 1 1v-3H3.5a.5.5 0 0 1-.5-.5v-5a.5.5 0 0 1 .5-.5H15V8H4.11l.559-2.794A1.5 1.5 0 0 1 6.139 4H13V3Zm2 9a1 1 0 1 0-2 0 1 1 0 0 0 2 0Zm-8 0a1 1 0 1 0-2 0 1 1 0 0 0 2 0Z"/></svg>
